static/images/social/facebook-logo.svg

<svg height="150" viewBox="0 0 150 150" width="150" xmlns="http://www.w3.org/2000/svg"><path d="m101.801959 20.0226804-14.1355672-.0226804c-15.8808248 0-26.1437114 10.5293814-26.1437114 26.8263918v12.3687628h-14.2126804c-1.2281443 0-2.2226804.9956701-2.2226804 2.2238145v17.9209278c0 1.2281443.9956701 2.2226804 2.2226804 2.2226804h14.2126804v45.2202067c0 1.228144.9945361 2.22268 2.2226804 2.22268h18.5435052c1.2281443 0 2.2226804-.99567 2.2226804-2.22268v-45.2202067h16.6179386c1.228144 0 2.22268-.9945361 2.22268-2.2226804l.006804-17.9209278c0-.5896907-.234742-1.154433-.650928-1.5717526-.416185-.4173196-.983196-.6520619-1.572886-.6520619h-16.6236086v-10.4851546c0-5.0395876 1.2009278-7.5979381 7.7657732-7.5979381l9.5223714-.0034021c1.22701 0 2.221546-.9956701 2.221546-2.2226804v-16.6406186c0-1.2258763-.993402-2.2204123-2.219278-2.2226804z" fill="#fff"/></svg>

<?xml version="1.0" encoding="UTF-8"?>
<svg width="150px" height="150px" viewBox="0 0 150 150" version="1.1" xmlns="http://www.w3.org/2000/svg" xmlns:xlink="http://www.w3.org/1999/xlink">
    <!-- Generator: Sketch 54.1 (76490) - https://sketchapp.com -->
    <title>Facebook</title>
    <desc>Created with Sketch.</desc>
    <g id="Facebook" stroke="none" stroke-width="1" fill="none" fill-rule="evenodd">
        <path d="M101.801959,20.0226804 L87.6663918,20 C71.785567,20 61.5226804,30.5293814 61.5226804,46.8263918 L61.5226804,59.1951546 L47.31,59.1951546 C46.0818557,59.1951546 45.0873196,60.1908247 45.0873196,61.4189691 L45.0873196,79.3398969 C45.0873196,80.5680412 46.0829897,81.5625773 47.31,81.5625773 L61.5226804,81.5625773 L61.5226804,126.782784 C61.5226804,128.010928 62.5172165,129.005464 63.7453608,129.005464 L82.288866,129.005464 C83.5170103,129.005464 84.5115464,128.009794 84.5115464,126.782784 L84.5115464,81.5625773 L101.129485,81.5625773 C102.357629,81.5625773 103.352165,80.5680412 103.352165,79.3398969 L103.358969,61.4189691 C103.358969,60.8292784 103.124227,60.2645361 102.708041,59.8472165 C102.291856,59.4298969 101.724845,59.1951546 101.135155,59.1951546 L84.5115464,59.1951546 L84.5115464,48.71 C84.5115464,43.6704124 85.7124742,41.1120619 92.2773196,41.1120619 L101.799691,41.1086598 C103.026701,41.1086598 104.021237,40.1129897 104.021237,38.8859794 L104.021237,22.2453608 C104.021237,21.0194845 103.027835,20.0249485 101.801959,20.0226804 Z" id="Facebook-logo" fill="#FFFFFF" fill-rule="nonzero"></path>
    </g>
</svg>
